X:1
T:La Schottische
L:1/8
M:4/4
I:linebreak $
K:D
V:1 treble 
V:1
 F2 G2 A2 Bc | d2 F2 A4 | BA GF E3 F | GA Bc B2 A2 | F2 G2 A2 Bc | d2 F2 A4 | BA GF EG FE | %7
 D2 D2 D4 :|$ d2 d2 c2 c2 | B2 B2 A4 | BA GF E3 F | GA Bc B2 A2 | d2 d2 c2 c2 | B2 B2 A4 | %14
 BA GF EG FE | D2 D2 D4 :| %16
